src/topics/icons/aws-opsworks.svg

<svg height="309" preserveAspectRatio="xMidYMid" viewBox="0 0 256 309" width="256" xmlns="http://www.w3.org/2000/svg"><path d="m255.197 158.817.803-4.307h-20.63l-35.39 102.835 20.163 5.442 1.825-2.319z" fill="#4b612c"/><g fill="#759c3e"><path d="m256 154.51v90.505l-35.942 17.982z"/><path d="m33.674 259.574-32.871-100.757-.803-4.307h19.919l35.689 102.948-19.743 5.329z"/><path d="m128.004 217.284-53.598-70.972-37.945-100.448 91.543 24.825 1.425 3.45.715 136.843z"/></g><path d="m128.004 217.284 55.466-72.848 36.073-98.572-91.539 24.825z" fill="#4b612c"/><path d="m256 100.74v-36.929l-36.457-17.947-91.539 171.42v91.418l67.713-33.854z" fill="#759c3e"/><path d="m128.004 154.51.358-.835.128-153.22-.486-.455-67.494 33.816z" fill="#4b612c"/><path d="m0 154.51v90.505l35.947 17.982z" fill="#4b612c"/><path d="m128.004 154.51v-154.51l67.49 33.816z" fill="#759c3e"/><path d="m0 100.74v-36.929l36.461-17.947 91.543 171.42v91.418l-67.713-33.854z" fill="#4b612c"/></svg>

<?xml version="1.0" encoding="UTF-8" standalone="no"?>
<svg width="256px" height="309px" viewBox="0 0 256 309" version="1.1" xmlns="http://www.w3.org/2000/svg" xmlns:xlink="http://www.w3.org/1999/xlink" preserveAspectRatio="xMidYMid">
	<g>
		<path d="M255.197,158.817 L256,154.51 L235.37,154.51 L199.98,257.345 L220.143,262.787 L221.968,260.468 L255.197,158.817" fill="#4B612C"></path>
		<path d="M256,154.51 L256,245.015 L220.058,262.997 L256,154.51" fill="#759C3E"></path>
		<path d="M33.674,259.574 L0.803,158.817 L0,154.51 L19.919,154.51 L55.608,257.458 L35.865,262.787 L33.674,259.574" fill="#759C3E"></path>
		<path d="M128.004,217.284 L74.406,146.312 L36.461,45.864 L128.004,70.689 L129.429,74.139 L130.144,210.982 L128.004,217.284" fill="#759C3E"></path>
		<path d="M128.004,217.284 L183.47,144.436 L219.543,45.864 L128.004,70.689 L128.004,217.284" fill="#4B612C"></path>
		<path d="M256,100.74 L256,63.811 L219.543,45.864 L128.004,217.284 L128.004,308.702 L195.717,274.848 L256,100.74" fill="#759C3E"></path>
		<path d="M128.004,154.51 L128.362,153.675 L128.49,0.455 L128.004,0 L60.51,33.816 L128.004,154.51" fill="#4B612C"></path>
		<path d="M0,154.51 L0,245.015 L35.947,262.997 L0,154.51" fill="#4B612C"></path>
		<path d="M128.004,154.51 L128.004,0 L195.494,33.816 L128.004,154.51" fill="#759C3E"></path>
		<path d="M0,100.74 L0,63.811 L36.461,45.864 L128.004,217.284 L128.004,308.702 L60.291,274.848 L0,100.74" fill="#4B612C"></path>
	</g>
</svg>
